X:137
M:6/8
L:1/8
Q:3/8=120
K:D
|;c2 d e2 A|c2 d (efg)| f2 d d2 d|Tc2 B A2 z|\
d2 d c2 B|c2 d e2 e| f2 d (cB)c| d3 d3:|

